svg/test.svg

<?xml version="1.0" encoding="UTF-8"?>
<svg xmlns="http://www.w3.org/2000/svg" xmlns:xlink="http://www.w3.org/1999/xlink" width="32" height="32" viewBox="0 0 32 32">
<path fill-rule="nonzero" fill="rgb(0%, 0%, 0%)" fill-opacity="1" d="M 4.480469 4.480469 C 3.390625 4.480469 2.558594 5.3125 2.558594 6.398438 L 2.558594 8.320312 L 29.441406 8.320312 L 29.441406 6.398438 C 29.441406 5.3125 28.609375 4.480469 27.519531 4.480469 Z M 5.121094 5.761719 C 5.472656 5.761719 5.757812 6.046875 5.761719 6.398438 C 5.742188 6.738281 5.460938 7.003906 5.121094 7.003906 C 4.78125 7.003906 4.5 6.738281 4.480469 6.398438 C 4.480469 6.046875 4.765625 5.761719 5.121094 5.761719 M 7.039062 5.761719 C 7.269531 5.757812 7.484375 5.878906 7.601562 6.078125 C 7.714844 6.277344 7.714844 6.523438 7.601562 6.722656 C 7.484375 6.921875 7.269531 7.042969 7.039062 7.039062 C 6.6875 7.039062 6.398438 6.753906 6.398438 6.398438 C 6.402344 6.046875 6.6875 5.761719 7.039062 5.761719 M 8.960938 5.761719 C 9.3125 5.761719 9.597656 6.046875 9.601562 6.398438 C 9.582031 6.738281 9.300781 7.003906 8.960938 7.003906 C 8.621094 7.003906 8.339844 6.738281 8.320312 6.398438 C 8.320312 6.046875 8.605469 5.761719 8.960938 5.761719 M 2.558594 9.601562 L 2.558594 25.601562 C 2.558594 26.660156 3.421875 27.519531 4.480469 27.519531 L 27.519531 27.519531 C 28.582031 27.519531 29.441406 26.664062 29.441406 25.601562 L 29.441406 9.601562 Z M 23.800781 12.8125 C 24.011719 12.851562 24.1875 12.996094 24.269531 13.191406 C 24.355469 13.390625 24.332031 13.617188 24.214844 13.796875 L 21.652344 17.636719 C 21.632812 17.664062 21.609375 17.6875 21.585938 17.710938 L 21.574219 17.734375 C 21.570312 17.734375 21.566406 17.738281 21.5625 17.738281 C 21.445312 17.855469 21.289062 17.921875 21.121094 17.921875 L 21.121094 17.917969 L 21.117188 17.917969 C 21.046875 17.917969 20.976562 17.902344 20.90625 17.878906 C 20.886719 17.871094 20.863281 17.859375 20.84375 17.847656 C 20.816406 17.835938 20.789062 17.828125 20.765625 17.8125 C 20.746094 17.800781 20.738281 17.78125 20.722656 17.769531 C 20.703125 17.753906 20.683594 17.746094 20.667969 17.730469 L 18.75 15.8125 C 18.566406 15.628906 18.515625 15.355469 18.613281 15.117188 C 18.710938 14.875 18.941406 14.71875 19.199219 14.71875 C 19.371094 14.71875 19.53125 14.789062 19.652344 14.90625 L 21.019531 16.277344 L 23.148438 13.085938 C 23.289062 12.871094 23.546875 12.765625 23.800781 12.8125 M 8.320312 14.71875 L 15.359375 14.71875 C 15.703125 14.734375 15.972656 15.015625 15.972656 15.359375 C 15.972656 15.703125 15.703125 15.988281 15.359375 16 L 8.320312 16 C 7.976562 15.988281 7.703125 15.703125 7.703125 15.359375 C 7.703125 15.015625 7.976562 14.734375 8.320312 14.71875 M 23.800781 19.210938 C 24.011719 19.25 24.1875 19.394531 24.269531 19.59375 C 24.355469 19.789062 24.332031 20.015625 24.214844 20.195312 L 21.652344 24.035156 C 21.632812 24.0625 21.609375 24.082031 21.585938 24.113281 C 21.582031 24.117188 21.578125 24.125 21.574219 24.132812 C 21.570312 24.136719 21.566406 24.136719 21.5625 24.140625 C 21.507812 24.191406 21.445312 24.230469 21.378906 24.257812 C 21.296875 24.300781 21.210938 24.320312 21.121094 24.320312 L 21.117188 24.320312 C 21.046875 24.316406 20.972656 24.300781 20.90625 24.277344 C 20.882812 24.269531 20.863281 24.253906 20.84375 24.25 C 20.816406 24.238281 20.789062 24.226562 20.765625 24.207031 C 20.746094 24.199219 20.738281 24.183594 20.722656 24.167969 C 20.703125 24.15625 20.683594 24.148438 20.667969 24.132812 L 18.75 22.210938 C 18.628906 22.089844 18.5625 21.929688 18.5625 21.757812 C 18.5625 21.589844 18.628906 21.425781 18.75 21.308594 C 18.871094 21.1875 19.03125 21.121094 19.203125 21.121094 C 19.371094 21.121094 19.53125 21.1875 19.652344 21.308594 L 21.019531 22.675781 L 23.148438 19.484375 C 23.292969 19.269531 23.546875 19.164062 23.800781 19.210938 M 8.320312 21.121094 L 15.359375 21.121094 C 15.59375 21.109375 15.8125 21.230469 15.933594 21.429688 C 16.050781 21.632812 16.050781 21.882812 15.933594 22.085938 C 15.8125 22.285156 15.59375 22.40625 15.359375 22.398438 L 8.320312 22.398438 C 8.152344 22.398438 7.988281 22.328125 7.867188 22.210938 C 7.75 22.089844 7.679688 21.925781 7.683594 21.757812 C 7.683594 21.40625 7.96875 21.121094 8.320312 21.121094 "/>
</svg>

<svg role="img" viewBox="0 0 32 32" xmlns="http://www.w3.org/2000/svg"><path d="M4.48 4.48c-1.09 0-1.921.832-1.921 1.918V8.32H29.44V6.398c0-1.085-.832-1.918-1.921-1.918Zm.641 1.282c.352 0 .637.285.64.636a.642.642 0 0 1-1.28 0c0-.351.285-.636.64-.636m1.918 0a.64.64 0 0 1 .563.316c.113.2.113.445 0 .645a.64.64 0 0 1-.563.316.64.64 0 0 1-.64-.64.643.643 0 0 1 .64-.637m1.922 0c.351 0 .637.285.64.636a.642.642 0 0 1-1.28 0c0-.351.284-.636.64-.636m-6.402 3.84v16c0 1.058.863 1.918 1.921 1.918h23.04a1.917 1.917 0 0 0 1.921-1.918v-16Zm21.242 3.21a.642.642 0 0 1 .414.984l-2.563 3.84q-.03.041-.066.075l-.012.023-.012.004a.62.62 0 0 1-.44.184v-.004h-.005a.7.7 0 0 1-.21-.04l-.063-.03c-.028-.012-.055-.02-.078-.035-.02-.012-.028-.032-.043-.043-.02-.016-.04-.024-.055-.04l-1.918-1.918a.64.64 0 0 1-.137-.695.63.63 0 0 1 .586-.398c.172 0 .332.07.453.187l1.368 1.371 2.128-3.191a.64.64 0 0 1 .653-.274M8.32 14.72h7.038a.64.64 0 0 1 0 1.281H8.32a.642.642 0 0 1 0-1.281m15.48 4.49a.64.64 0 0 1 .47.383.64.64 0 0 1-.055.601l-2.563 3.84c-.02.027-.043.047-.066.078q-.006.007-.012.02l-.012.008a.6.6 0 0 1-.183.117.55.55 0 0 1-.258.062h-.004a.8.8 0 0 1-.21-.043c-.024-.007-.044-.023-.063-.027-.028-.012-.055-.023-.078-.043-.02-.008-.028-.023-.043-.039-.02-.012-.04-.02-.055-.035L18.75 22.21a.635.635 0 0 1 0-.902.635.635 0 0 1 .902 0l1.368 1.367 2.128-3.192a.64.64 0 0 1 .653-.273M8.32 21.12h7.038a.64.64 0 0 1 .575.309.66.66 0 0 1 0 .656c-.121.2-.34.32-.575.312H8.32a.66.66 0 0 1-.453-.187.64.64 0 0 1-.183-.453c0-.352.285-.637.636-.637" fill="rgb(0%, 0%, 0%)"/></svg>
